source/assets/images/icons/twitter-icon.svg

<?xml version="1.0" ?><!DOCTYPE svg  PUBLIC '-//W3C//DTD SVG 1.1//EN'  'http://www.w3.org/Graphics/SVG/1.1/DTD/svg11.dtd'><svg height="100%" style="fill-rule:evenodd;clip-rule:evenodd;stroke-linejoin:round;stroke-miterlimit:2;" version="1.1" viewBox="0 0 512 512" width="100%" xml:space="preserve" xmlns="http://www.w3.org/2000/svg" xmlns:serif="http://www.serif.com/" xmlns:xlink="http://www.w3.org/1999/xlink"><g><path d="M448,512l-384,0c-35.328,0 -64,-28.672 -64,-64l0,-384c0,-35.328 28.672,-64 64,-64l384,0c35.328,0 64,28.672 64,64l0,384c0,35.328 -28.672,64 -64,64Z" id="Dark_Blue" style="fill:#1da1f2;fill-rule:nonzero;"/><path d="M196.608,386.048c120.704,0 186.752,-100.096 186.752,-186.752c0,-2.816 0,-5.632 -0.128,-8.448c12.8,-9.216 23.936,-20.864 32.768,-34.048c-11.776,5.248 -24.448,8.704 -37.76,10.368c13.568,-8.064 23.936,-20.992 28.928,-36.352c-12.672,7.552 -26.752,12.928 -41.728,15.872c-12.032,-12.8 -29.056,-20.736 -47.872,-20.736c-36.224,0 -65.664,29.44 -65.664,65.664c0,5.12 0.64,10.112 1.664,14.976c-54.528,-2.688 -102.912,-28.928 -135.296,-68.608c-5.632,9.728 -8.832,20.992 -8.832,33.024c0,22.784 11.648,42.88 29.184,54.656c-10.752,-0.384 -20.864,-3.328 -29.696,-8.192l0,0.896c0,31.744 22.656,58.368 52.608,64.384c-5.504,1.536 -11.264,2.304 -17.28,2.304c-4.224,0 -8.32,-0.384 -12.288,-1.152c8.32,26.112 32.64,45.056 61.312,45.568c-22.528,17.664 -50.816,28.16 -81.536,28.16c-5.248,0 -10.496,-0.256 -15.616,-0.896c28.928,18.432 63.488,29.312 100.48,29.312" id="Logo__x2014__FIXED" style="fill:#fff;fill-rule:nonzero;"/></g></svg>

<?xml version="1.0" encoding="UTF-8" standalone="no"?>
<!DOCTYPE svg PUBLIC "-//W3C//DTD SVG 1.1//EN" "http://www.w3.org/Graphics/SVG/1.1/DTD/svg11.dtd">
<svg width="100%" height="100%" viewBox="0 0 512 512" version="1.1" xmlns="http://www.w3.org/2000/svg" xmlns:xlink="http://www.w3.org/1999/xlink" xml:space="preserve" xmlns:serif="http://www.serif.com/" style="fill-rule:evenodd;clip-rule:evenodd;stroke-linejoin:round;stroke-miterlimit:2;">
    <g>
        <path id="Dark_Blue" d="M448,512L64,512C28.672,512 0,483.328 0,448L0,64C0,28.672 28.672,0 64,0L448,0C483.328,0 512,28.672 512,64L512,448C512,483.328 483.328,512 448,512Z" style="fill:rgb(29,161,242);fill-rule:nonzero;"/>
        <path id="Logo__x2014__FIXED" d="M196.608,386.048C317.312,386.048 383.36,285.952 383.36,199.296C383.36,196.48 383.36,193.664 383.232,190.848C396.032,181.632 407.168,169.984 416,156.8C404.224,162.048 391.552,165.504 378.24,167.168C391.808,159.104 402.176,146.176 407.168,130.816C394.496,138.368 380.416,143.744 365.44,146.688C353.408,133.888 336.384,125.952 317.568,125.952C281.344,125.952 251.904,155.392 251.904,191.616C251.904,196.736 252.544,201.728 253.568,206.592C199.04,203.904 150.656,177.664 118.272,137.984C112.64,147.712 109.44,158.976 109.44,171.008C109.44,193.792 121.088,213.888 138.624,225.664C127.872,225.28 117.76,222.336 108.928,217.472L108.928,218.368C108.928,250.112 131.584,276.736 161.536,282.752C156.032,284.288 150.272,285.056 144.256,285.056C140.032,285.056 135.936,284.672 131.968,283.904C140.288,310.016 164.608,328.96 193.28,329.472C170.752,347.136 142.464,357.632 111.744,357.632C106.496,357.632 101.248,357.376 96.128,356.736C125.056,375.168 159.616,386.048 196.608,386.048" style="fill:white;fill-rule:nonzero;"/>
    </g>
</svg>
